!!!OTL: Fuchouge
!!!ARE: Asia, China,ÿGuangdong Qiongshan
!! II, 385, 2)
!!!SCT: C1977
!!!YEM: Copyright 1995, estate of Helmut Schaffrath.
**kern
*ICvox
*Ivox
*M2/4
*k[]
*C:
{8ee
16ee
16dd
8cc
8cc
=1
8ee
8ee
4dd}
=2
{8cc
8cc
8a
8g
=3
8g
8a
4g}
=4
{8cc
16cc
16a
4dd
=5
8dd
16dd
16cc
8a
8a
=6
8cc
8a
4dd}
=7
{8a
16dd
16a
8g
8g
=8
8g
8a
4g}
==
!!!AGN: Xiaodiao
!!!AMT: simple duple
!!!AIN: vox
!!!EED: Helmut Schaffrath
!!!EEV: 1.0
*-
